X:2
T:Petit Branle
S:http://www.fourwinds.demon.nl/branles.htm
Z:Jack Campin <http://www.campin.me.uk/> 2002
M:C|
L:1/8
K:D Dorian
d2a2  f4  |g4    a4  |d2e2  f2ef|gafg e2d2:|
d3 e  fga2|d3 e ^c2A2|d3 e  fga2|d8       :|
d2e2 ^f2d2|d2e2 ^f2d2|a3 g =fge2|d8       :|
